;FLAVOR:UltiGCode
;TIME:2032
;MATERIAL:1842
;MATERIAL2:0
;NOZZLE_DIAMETER:0.4
;MINX:93.215
;MINY:96.792
;MINZ:0.27
;MAXX:128.206
;MAXY:127.688
;MAXZ:25.07
;TARGET_MACHINE.NAME:Ultimaker 2+
;Generated with Cura_SteamEngine 5.6.0
M82 ;absolute extrusion mode
G0 F3000 Y50 ;avoid prime blob
G92 E0
G92 E0
G10
;LAYER_COUNT:249
;LAYER:0
M107
G0 F7200 X95.785 Y100.288 Z0.27
;TYPE:SKIRT
G11
G1 F1800 X98.352 Y97.795 E0.38646
G1 X101.424 Y96.792 E0.73547
G1 X106.612 Y96.792 E1.29578
G1 X109.412 Y97.744 E1.61518
G1 X111.177 Y99.561 E1.88876
G1 X112.996 Y97.795 E2.16256
G1 X116.068 Y96.792 E2.51157
G1 X121.776 Y96.792 E3.12804
G1 X124.394 Y97.682 E3.42667
G1 X124.71 Y97.882 E3.46706
G1 X127.203 Y100.449 E3.85352
G1 X128.206 Y103.521 E4.20254
G1 X128.206 Y108.309 E4.71964
G1 X127.786 Y110.237 E4.93275
G1 X126.679 Y112.051 E5.16226
G1 X126.022 Y112.689 E5.26117
G1 X126.538 Y114.282 E5.44201
G1 X126.538 Y120.467 E6.10999
G1 X126.118 Y122.395 E6.3231
G1 X125.008 Y124.215 E6.55333
G1 X122.862 Y126.297 E6.87625
G1 X119.805 Y127.288 E7.22332
G1 X112.088 Y127.288 E8.05676
G1 X110.573 Y126.888 E8.22598
G1 X110.203 Y126.708 E8.27042
G1 X109.262 Y127.205 E8.38535
G1 X107.297 Y127.688 E8.60389
G1 X100.148 Y127.688 E9.37598
G1 X97.073 Y126.553 E9.72998
G1 X95.146 Y125.055 E9.99358
G1 X93.579 Y122.044 E10.36017
G1 X93.215 Y120.713 E10.5092
G1 X93.215 Y116.951 E10.9155
G1 X93.615 Y115.685 E11.05889
G1 X93.615 Y113.942 E11.24713
G1 X94.489 Y111.272 E11.55055
G1 X95.334 Y110.376 E11.68356
G1 X94.695 Y108.397 E11.90816
G1 X94.695 Y103.222 E12.46706
G1 X95.585 Y100.604 E12.76569
G1 X95.785 Y100.288 E12.80608
G0 F7200 X96.064 Y100.575
G1 F1800 X98.565 Y98.146 E13.18261
G1 X101.487 Y97.192 E13.51458
G1 X106.545 Y97.192 E14.06085
G1 X109.192 Y98.092 E14.3628
G1 X111.169 Y100.127 E14.66921
G1 X113.209 Y98.146 E14.97632
G1 X116.131 Y97.192 E15.30829
G1 X121.709 Y97.192 E15.91072
G1 X124.265 Y98.061 E16.20228
G1 X124.423 Y98.161 E16.22248
G1 X126.852 Y100.662 E16.59901
G1 X127.806 Y103.584 E16.93098
G1 X127.806 Y108.265 E17.43653
G1 X127.409 Y110.088 E17.63802
G1 X126.366 Y111.797 E17.85425
G1 X125.564 Y112.575 E17.97493
G1 X126.138 Y114.346 E18.17599
G1 X126.138 Y120.423 E18.83231
G1 X125.741 Y122.246 E19.03381
G1 X124.695 Y123.961 E19.25076
G1 X122.65 Y125.945 E19.55848
G1 X119.741 Y126.888 E19.88875
G1 X112.141 Y126.888 E20.70955
G1 X110.675 Y126.501 E20.8733
G1 X110.201 Y126.257 E20.93087
G1 X109.115 Y126.83 E21.06349
G1 X107.251 Y127.288 E21.27079
G1 X100.219 Y127.288 E22.03024
G1 X97.269 Y126.199 E22.36986
G1 X95.461 Y124.794 E22.61715
G1 X93.954 Y121.897 E22.96983
G1 X93.615 Y120.658 E23.10856
G1 X93.615 Y117.012 E23.50232
G1 X94.015 Y115.746 E23.64571
G1 X94.015 Y114.006 E23.83363
G1 X94.842 Y111.481 E24.12059
G1 X95.788 Y110.477 E24.26957
G1 X95.095 Y108.333 E24.51292
G1 X95.095 Y103.289 E25.05767
G1 X95.964 Y100.733 E25.34924
G1 X96.064 Y100.575 E25.36943
G0 F7200 X96.343 Y100.862
G1 F1800 X98.778 Y98.497 E25.73603
G1 X101.55 Y97.592 E26.05096
G1 X106.478 Y97.592 E26.58319
G1 X108.972 Y98.44 E26.86768
G1 X111.161 Y100.693 E27.20694
G1 X113.422 Y98.497 E27.54735
G1 X116.194 Y97.592 E27.86227
G1 X121.642 Y97.592 E28.45066
G1 X124.136 Y98.44 E28.73515
G1 X126.501 Y100.875 E29.10176
G1 X127.406 Y103.647 E29.41669
G1 X127.406 Y108.221 E29.91068
G1 X127.032 Y109.939 E30.10057
G1 X126.053 Y111.543 E30.30352
G1 X125.107 Y112.461 E30.44588
G1 X125.738 Y114.407 E30.66682
G1 X125.738 Y120.379 E31.3118
G1 X125.364 Y122.097 E31.50169
G1 X124.382 Y123.707 E31.70536
G1 X122.438 Y125.593 E31.99788
G1 X119.677 Y126.488 E32.31134
G1 X112.194 Y126.488 E33.11951
G1 X110.82 Y126.125 E33.27299
G1 X110.323 Y125.869 E33.33337
G1 X110.095 Y125.86 E33.35801
G1 X108.969 Y126.454 E33.4955
G1 X107.204 Y126.888 E33.6918
G1 X100.29 Y126.888 E34.43851
G1 X97.465 Y125.845 E34.76374
G1 X95.776 Y124.533 E34.99473
G1 X94.328 Y121.749 E35.33363
G1 X94.015 Y120.604 E35.46183
G1 X94.015 Y117.073 E35.84318
G1 X94.415 Y115.807 E35.98657
G1 X94.415 Y114.069 E36.17427
G1 X95.194 Y111.69 E36.44463
G1 X96.242 Y110.578 E36.60966
G1 X95.495 Y108.269 E36.87175
G1 X95.495 Y103.356 E37.40236
G1 X96.343 Y100.862 E37.68685
G0 F7200 X96.691 Y101.082
G1 F1800 X98.991 Y98.848 E38.03314
G1 X101.613 Y97.992 E38.33103
G1 X106.411 Y97.992 E38.84921
G1 X108.752 Y98.788 E39.11625
G1 X110.922 Y101.022 E39.45261
G1 X111.156 Y101.609 E39.52086
G1 X111.404 Y101.015 E39.59038
G1 X113.635 Y98.848 E39.92628
G1 X116.257 Y97.992 E40.22416
G1 X121.575 Y97.992 E40.79851
G1 X123.916 Y98.788 E41.06555
G1 X126.15 Y101.088 E41.41184
G1 X127.006 Y103.71 E41.70972
G1 X127.006 Y108.177 E42.19216
G1 X126.655 Y109.79 E42.37044
G1 X125.739 Y111.291 E42.56035
G1 X124.65 Y112.347 E42.72418
G1 X125.338 Y114.468 E42.96499
G1 X125.338 Y120.335 E43.59863
G1 X124.987 Y121.948 E43.77691
G1 X124.069 Y123.453 E43.9673
G1 X122.226 Y125.241 E44.24462
G1 X119.613 Y126.088 E44.54128
G1 X112.247 Y126.088 E45.33681
G1 X110.922 Y125.738 E45.48482
G1 X110.431 Y125.473 E45.54508
G1 X110.004 Y125.455 E45.59124
G1 X108.822 Y126.079 E45.73559
G1 X107.158 Y126.488 E45.92065
G1 X100.36 Y126.488 E46.65483
G1 X97.664 Y125.493 E46.9652
G1 X96.091 Y124.27 E47.18039
G1 X94.703 Y121.602 E47.50519
G1 X94.415 Y120.549 E47.62309
G1 X94.415 Y117.134 E47.99191
G1 X94.815 Y115.868 E48.1353
G1 X94.815 Y114.132 E48.32279
G1 X95.546 Y111.899 E48.57655
G1 X96.696 Y110.679 E48.75762
G1 X95.895 Y108.205 E49.03847
G1 X95.895 Y103.423 E49.55492
G1 X96.691 Y101.082 E49.82197
G0 F7200 X97.039 Y101.302
G1 F1800 X96.295 Y103.49 E50.07156
G1 X96.295 Y108.141 E50.57387
G1 X97.036 Y110.428 E50.8335
G1 X97.225 Y110.7 E50.86928
G1 X95.899 Y112.108 E51.07816
G1 X95.215 Y114.196 E51.31545
G1 X95.215 Y115.929 E51.50262
G1 X94.815 Y117.195 E51.64601
G1 X94.815 Y120.494 E52.0023
G1 X95.078 Y121.455 E52.10991
G1 X96.406 Y124.009 E52.4208
G1 X97.86 Y125.139 E52.61968
G1 X100.431 Y126.088 E52.91566
G1 X107.112 Y126.088 E53.6372
G1 X108.675 Y125.704 E53.81103
G1 X109.913 Y125.05 E53.96224
G1 X110.539 Y125.077 E54.02991
G1 X111.069 Y125.363 E54.09495
G1 X112.3 Y125.688 E54.23246
G1 X119.549 Y125.688 E55.01535
G1 X122.014 Y124.889 E55.29521
G1 X123.756 Y123.199 E55.55733
G1 X124.61 Y121.799 E55.73444
G1 X124.938 Y120.291 E55.90111
G1 X124.938 Y114.532 E56.52308
G1 X124.193 Y112.234 E56.78398
G1 X125.425 Y111.039 E56.96935
G1 X126.278 Y109.641 E57.14622
G1 X126.606 Y108.133 E57.31289
G1 X126.606 Y103.773 E57.78377
G1 X125.799 Y101.301 E58.06461
G1 X123.696 Y99.136 E58.39059
G1 X121.508 Y98.392 E58.64018
G1 X116.32 Y98.392 E59.20048
G1 X113.848 Y99.199 E59.48132
G1 X111.683 Y101.302 E59.80729
G1 X111.148 Y102.874 E59.98663
G1 X110.635 Y101.301 E60.16532
G1 X108.532 Y99.136 E60.49129
G1 X106.344 Y98.392 E60.74089
G1 X101.676 Y98.392 E61.24503
G1 X99.204 Y99.199 E61.52587
G1 X97.039 Y101.302 E61.85184
G0 F7200 X97.387 Y101.522
G1 F1800 X99.417 Y99.55 E62.1575
G1 X101.739 Y98.792 E62.4213
G1 X106.277 Y98.792 E62.9114
G1 X108.312 Y99.484 E63.14354
G1 X110.284 Y101.514 E63.4492
G1 X111.042 Y103.836 E63.713
G1 X111.042 Y106.863 E64.03991
G1 X111.339 Y106.836 E64.07212
G1 X111.339 Y103.557 E64.42625
G1 X112.031 Y101.522 E64.65839
G1 X114.061 Y99.55 E64.96405
G1 X116.383 Y98.792 E65.22785
G1 X121.441 Y98.792 E65.77411
G1 X123.476 Y99.484 E66.00625
G1 X125.448 Y101.514 E66.3119
G1 X126.206 Y103.836 E66.5757
G1 X126.206 Y108.089 E67.03503
G1 X125.901 Y109.492 E67.19009
G1 X125.111 Y110.787 E67.35392
G1 X123.664 Y112.19 E67.5716
G1 X123.842 Y112.447 E67.60536
G1 X124.538 Y114.593 E67.84901
G1 X124.538 Y120.247 E68.45964
G1 X124.233 Y121.65 E68.61471
G1 X123.443 Y122.945 E68.77854
G1 X121.802 Y124.537 E69.02546
G1 X119.485 Y125.288 E69.28851
G1 X112.353 Y125.288 E70.05877
G1 X111.171 Y124.976 E70.1908
G1 X110.653 Y124.681 E70.25518
G1 X109.822 Y124.645 E70.34501
G1 X108.529 Y125.328 E70.50294
G1 X107.065 Y125.688 E70.66576
G1 X100.502 Y125.688 E71.37457
G1 X98.056 Y124.785 E71.65616
G1 X96.721 Y123.748 E71.83873
G1 X95.452 Y121.307 E72.13585
G1 X95.215 Y120.44 E72.23292
G1 X95.215 Y117.256 E72.5768
G1 X95.615 Y115.99 E72.72019
G1 X95.615 Y114.259 E72.90713
G1 X96.251 Y112.317 E73.12783
G1 X97.759 Y110.716 E73.36536
G1 X97.417 Y110.305 E73.42311
G1 X96.695 Y108.077 E73.67605
G1 X96.695 Y103.557 E74.16421
G1 X97.387 Y101.522 E74.39635
G0 F7200 X97.735 Y101.742
G1 F1800 X99.63 Y99.901 E74.68169
G1 X101.802 Y99.192 E74.92845
G1 X106.21 Y99.192 E75.40451
G1 X108.092 Y99.832 E75.6192
G1 X109.933 Y101.727 E75.90454
G1 X110.642 Y103.899 E76.1513
G1 X110.642 Y107.308 E76.51947
G1 X111.346 Y107.233 E76.59593
G1 X111.739 Y107.3 E76.63899
G1 X111.739 Y103.624 E77.03599
G1 X112.379 Y101.742 E77.25068
G1 X114.274 Y99.901 E77.53602
G1 X116.446 Y99.192 E77.78278
G1 X121.374 Y99.192 E78.315
G1 X123.256 Y99.832 E78.52969
G1 X125.097 Y101.727 E78.81503
G1 X125.806 Y103.899 E79.06179
G1 X125.806 Y108.045 E79.50955
G1 X125.524 Y109.343 E79.65301
G1 X124.798 Y110.533 E79.80356
G1 X123.326 Y111.961 E80.02505
G1 X123.056 Y112.092 E80.05746
G1 X123.462 Y112.57 E80.12519
G1 X124.138 Y114.654 E80.36181
G1 X124.138 Y120.203 E80.9611
G1 X123.856 Y121.501 E81.10456
G1 X123.13 Y122.691 E81.2551
G1 X121.59 Y124.185 E81.48683
G1 X119.421 Y124.888 E81.73308
G1 X112.406 Y124.888 E82.4907
G1 X111.273 Y124.589 E82.61725
G1 X110.771 Y124.285 E82.68063
G1 X109.731 Y124.24 E82.79306
G1 X108.382 Y124.953 E82.95785
G1 X107.019 Y125.288 E83.10943
G1 X100.573 Y125.288 E83.8056
G1 X98.254 Y124.432 E84.07257
G1 X97.036 Y123.485 E84.2392
G1 X95.826 Y121.159 E84.52236
G1 X95.615 Y120.386 E84.6089
G1 X95.615 Y117.317 E84.94035
G1 X96.015 Y116.051 E85.08374
G1 X96.015 Y114.322 E85.27048
G1 X96.603 Y112.526 E85.47458
G1 X98.097 Y110.941 E85.70981
G1 X98.359 Y110.761 E85.74414
G1 X97.798 Y110.182 E85.83121
G1 X97.095 Y108.013 E86.07746
G1 X97.095 Y103.624 E86.55147
G1 X97.735 Y101.742 E86.76616
G0 F7200 X98.083 Y101.962
G1 F1800 X99.843 Y100.252 E87.03118
G1 X101.865 Y99.592 E87.2609
G1 X106.143 Y99.592 E87.72292
G1 X107.872 Y100.18 E87.92016
G1 X109.582 Y101.94 E88.18518
G1 X110.242 Y103.962 E88.4149
G1 X110.242 Y107.754 E88.82443
G1 X111.389 Y107.631 E88.94902
G1 X112.139 Y107.801 E89.03207
G1 X112.139 Y103.691 E89.47595
G1 X112.727 Y101.962 E89.67319
G1 X114.487 Y100.252 E89.93821
G1 X116.509 Y99.592 E90.16793
G1 X121.307 Y99.592 E90.68611
G1 X123.036 Y100.18 E90.88334
G1 X124.746 Y101.94 E91.14837
G1 X125.406 Y103.962 E91.37808
G1 X125.406 Y108.001 E91.81429
G1 X125.147 Y109.194 E91.94614
G1 X124.485 Y110.279 E92.08341
G1 X123.047 Y111.674 E92.29978
G1 X122.322 Y111.909 E92.38209
G1 X123.082 Y112.693 E92.50002
G1 X123.738 Y114.715 E92.7296
G1 X123.738 Y120.159 E93.31755
G1 X123.479 Y121.352 E93.4494
G1 X122.817 Y122.437 E93.58667
G1 X121.378 Y123.833 E93.80319
G1 X119.357 Y124.488 E94.03264
G1 X112.459 Y124.488 E94.77762
G1 X111.375 Y124.202 E94.8987
G1 X110.896 Y123.89 E94.96044
G1 X110.032 Y123.852 E95.05384
G1 X109.533 Y123.892 E95.10791
G1 X108.235 Y124.578 E95.26646
G1 X106.973 Y124.888 E95.40681
G1 X100.643 Y124.888 E96.09045
G1 X98.451 Y124.079 E96.3428
G1 X97.351 Y123.224 E96.49326
G1 X96.2 Y121.011 E96.76266
G1 X96.015 Y120.332 E96.83867
G1 X96.015 Y117.378 E97.1577
G1 X96.415 Y116.112 E97.30109
G1 X96.415 Y114.385 E97.48761
G1 X96.955 Y112.735 E97.67511
G1 X98.356 Y111.249 E97.89567
G1 X98.977 Y110.822 E97.97707
G1 X98.15 Y109.97 E98.1053
G1 X97.495 Y107.949 E98.33475
G1 X97.495 Y103.691 E98.79461
G1 X98.083 Y101.962 E98.99185
G0 F7200 X98.431 Y102.182
G1 F1800 X100.056 Y100.603 E99.23655
G1 X101.928 Y99.992 E99.44923
G1 X106.076 Y99.992 E99.89721
G1 X107.652 Y100.528 E100.07699
G1 X109.231 Y102.153 E100.3217
G1 X109.842 Y104.025 E100.53437
G1 X109.842 Y107.913 E100.95428
G1 X109.788 Y108.206 E100.98645
G1 X111.367 Y108.036 E101.15797
G1 X112.685 Y108.335 E101.30393
G1 X112.539 Y107.824 E101.36133
G1 X112.539 Y103.758 E101.80046
G1 X113.075 Y102.182 E101.98024
G1 X114.7 Y100.603 E102.22494
G1 X116.572 Y99.992 E102.43762
G1 X121.24 Y99.992 E102.94176
G1 X122.816 Y100.528 E103.12154
G1 X124.395 Y102.153 E103.36625
G1 X125.006 Y104.025 E103.57892
G1 X125.006 Y107.957 E104.00358
G1 X124.77 Y109.045 E104.12382
G1 X124.172 Y110.025 E104.2478
G1 X122.834 Y111.323 E104.44913
G1 X121.589 Y111.727 E104.59049
G1 X122.731 Y112.905 E104.76769
G1 X123.338 Y114.776 E104.98012
G1 X123.338 Y120.115 E105.55674
G1 X123.102 Y121.203 E105.67697
G1 X122.504 Y122.183 E105.80096
G1 X121.166 Y123.481 E106.00229
G1 X119.293 Y124.088 E106.21493
G1 X112.512 Y124.088 E106.94728
G1 X111.538 Y123.831 E107.05607
G1 X111.021 Y123.495 E107.12266
G1 X110.026 Y123.451 E107.23023
G1 X109.419 Y123.499 E107.29599
G1 X108.089 Y124.202 E107.45846
G1 X106.926 Y124.488 E107.58781
G1 X100.714 Y124.488 E108.2587
G1 X98.647 Y123.725 E108.49666
G1 X97.665 Y122.962 E108.63097
G1 X96.575 Y120.865 E108.88621
G1 X96.415 Y120.278 E108.95192
G1 X96.415 Y117.439 E109.25853
G1 X96.815 Y116.173 E109.40192
G1 X96.815 Y114.449 E109.58812
G1 X97.308 Y112.944 E109.75915
G1 X98.647 Y111.523 E109.97002
G1 X99.049 Y111.258 E110.02202
G1 X99.731 Y111.025 E110.09986
G1 X98.502 Y109.758 E110.29049
G1 X97.895 Y107.885 E110.50313
G1 X97.895 Y103.758 E110.94885
G1 X98.431 Y102.182 E111.12863
G0 F7200 X98.779 Y102.402
G1 F1800 X100.269 Y100.954 E111.35302
G1 X101.991 Y100.392 E111.54865
G1 X106.009 Y100.392 E111.9826
G1 X107.432 Y100.876 E112.14493
G1 X108.88 Y102.366 E112.36932
G1 X109.442 Y104.088 E112.56495
G1 X109.442 Y107.913 E112.97805
G1 X109.224 Y108.917 E113.08901
G1 X109.781 Y108.609 E113.15775
G1 X111.345 Y108.441 E113.32763
G1 X112.88 Y108.789 E113.49762
G1 X113.358 Y109.115 E113.56011
G1 X112.939 Y107.824 E113.70669
G1 X112.939 Y103.825 E114.13859
G1 X113.423 Y102.402 E114.30092
G1 X114.913 Y100.954 E114.52531
G1 X116.635 Y100.392 E114.72094
G1 X121.173 Y100.392 E115.21104
G1 X122.596 Y100.876 E115.37337
G1 X124.044 Y102.366 E115.59776
G1 X124.606 Y104.088 E115.79339
G1 X124.606 Y107.913 E116.20649
G1 X124.393 Y108.894 E116.31491
G1 X123.857 Y109.773 E116.4261
G1 X122.621 Y110.972 E116.61207
G1 X120.962 Y111.51 E116.80043
G1 X120.602 Y111.53 E116.83937
G1 X121.19 Y111.889 E116.91378
G1 X122.38 Y113.117 E117.09846
G1 X122.938 Y114.837 E117.29375
G1 X122.938 Y120.071 E117.85902
G1 X122.725 Y121.052 E117.96744
G1 X122.189 Y121.931 E118.07862
G1 X120.953 Y123.13 E118.2646
G1 X119.232 Y123.688 E118.45999
G1 X112.565 Y123.688 E119.18003
G1 X111.64 Y123.444 E119.28335
G1 X111.156 Y123.1 E119.34748
G1 X110.02 Y123.05 E119.47028
G1 X109.305 Y123.107 E119.54775
G1 X107.942 Y123.827 E119.71423
G1 X106.88 Y124.088 E119.83234
G1 X100.784 Y124.088 E120.49071
G1 X98.844 Y123.372 E120.71404
G1 X97.979 Y122.7 E120.83234
G1 X96.95 Y120.719 E121.07343
G1 X96.815 Y120.224 E121.12884
G1 X96.815 Y117.499 E121.42314
G1 X97.159 Y116.41 E121.54648
G1 X97.215 Y115.97 E121.59439
G1 X97.215 Y114.512 E121.75185
G1 X97.66 Y113.153 E121.90629
G1 X98.909 Y111.828 E122.10294
G1 X99.178 Y111.637 E122.13858
G1 X100.638 Y111.138 E122.30521
G1 X100.052 Y110.781 E122.37932
G1 X98.853 Y109.545 E122.56529
G1 X98.295 Y107.824 E122.76069
G1 X98.295 Y103.825 E123.19258
G1 X98.779 Y102.402 E123.35491
G0 F7200 X99.127 Y102.622
G1 F1800 X100.482 Y101.305 E123.55899
G1 X102.054 Y100.792 E123.73757
G1 X105.942 Y100.792 E124.15748
G1 X107.212 Y101.224 E124.30235
G1 X108.529 Y102.579 E124.50643
G1 X109.042 Y104.151 E124.68502
G1 X109.042 Y107.869 E125.08656
G1 X108.852 Y108.743 E125.18316
G1 X108.378 Y109.521 E125.28155
G1 X107.244 Y110.621 E125.45217
G1 X105.675 Y111.13 E125.63032
G1 X101.956 Y111.13 E126.03197
G1 X101.082 Y110.94 E126.12857
G1 X100.304 Y110.466 E126.22696
G1 X99.204 Y109.332 E126.39758
G1 X98.695 Y107.763 E126.57573
G1 X98.695 Y103.892 E126.9938
G1 X99.127 Y102.622 E127.13867
G0 F7200 X99.475 Y102.842
G1 F1800 X100.695 Y101.656 E127.32243
G1 X102.117 Y101.192 E127.48398
G1 X105.875 Y101.192 E127.88984
G1 X106.992 Y101.572 E128.01727
G1 X108.178 Y102.792 E128.20103
G1 X108.642 Y104.214 E128.36257
G1 X108.642 Y107.825 E128.75256
G1 X108.475 Y108.592 E128.83734
G1 X108.061 Y109.272 E128.92332
G1 X107.032 Y110.27 E129.07813
G1 X105.614 Y110.73 E129.23913
G1 X102 Y110.73 E129.62944
