;FLAVOR:UltiGCode
;TIME:1712
;MATERIAL:1658
;MATERIAL2:0
;NOZZLE_DIAMETER:0.4
;MINX:102.156
;MINY:78.769
;MINZ:0.27
;MAXX:144.029
;MAXY:118.685
;MAXZ:6.27
;TARGET_MACHINE.NAME:Ultimaker 2+
;Generated with Cura_SteamEngine 5.6.0
M82 ;absolute extrusion mode
G0 F3000 Y50 ;avoid prime blob
G92 E0
G92 E0
G10
;LAYER_COUNT:61
;LAYER:0
M107
G0 F7200 X106.686 Y80.056 Z0.27
;TYPE:SKIRT
G11
G1 F1800 X107.087 Y79.651 E0.06155
G1 X107.546 Y79.315 E0.12299
G1 X107.994 Y79.081 E0.17757
G1 X108.57 Y78.883 E0.24335
G1 X109.383 Y78.779 E0.33187
G1 X110.073 Y78.769 E0.4064
G1 X116.117 Y78.769 E1.05915
G1 X116.818 Y78.779 E1.13487
G1 X117.415 Y78.839 E1.19967
G1 X117.965 Y78.985 E1.26113
G1 X118.428 Y79.187 E1.31568
G1 X118.91 Y79.489 E1.37711
G1 X119.448 Y79.959 E1.45427
G1 X120.12 Y80.838 E1.57376
G1 X121.803 Y82.981 E1.86805
G1 X123.565 Y85.098 E2.16552
G1 X125.339 Y87.11 E2.45522
G1 X127.215 Y89.123 E2.75239
G1 X129.147 Y91.079 E3.04932
G1 X131.093 Y92.941 E3.34019
G1 X133.135 Y94.788 E3.63756
G1 X135.196 Y96.549 E3.93033
G1 X137.312 Y98.257 E4.22402
G1 X138.416 Y99.097 E4.37384
G1 X138.987 Y99.545 E4.45223
G1 X139.432 Y99.963 E4.51816
G1 X139.858 Y100.535 E4.59519
G1 X140.27 Y101.229 E4.68235
G1 X143.247 Y106.387 E5.32554
G1 X143.591 Y107.007 E5.40212
G1 X143.801 Y107.466 E5.45663
G1 X143.969 Y108.074 E5.52476
G1 X144.029 Y108.64 E5.58623
G1 X143.998 Y109.208 E5.64766
G1 X143.888 Y109.741 E5.70644
G1 X143.571 Y110.491 E5.79438
G1 X143.214 Y111.125 E5.87296
G1 X140.243 Y116.274 E6.51498
G1 X139.86 Y116.917 E6.59581
G1 X139.51 Y117.404 E6.66058
G1 X139.156 Y117.766 E6.71527
G1 X138.649 Y118.142 E6.78344
G1 X138.201 Y118.375 E6.83797
G1 X137.622 Y118.573 E6.90406
G1 X136.82 Y118.674 E6.99136
G1 X136.07 Y118.685 E7.07237
G1 X130.087 Y118.685 E7.71853
G1 X129.371 Y118.675 E7.79587
G1 X128.436 Y118.635 E7.89694
G1 X127.157 Y118.564 E8.03529
G1 X124.402 Y118.487 E8.33294
G1 X121.707 Y118.489 E8.624
G1 X118.952 Y118.568 E8.92167
G1 X117.746 Y118.636 E9.05212
G1 X116.86 Y118.674 E9.1479
G1 X116.067 Y118.685 E9.23355
G1 X110.086 Y118.685 E9.8795
G1 X109.385 Y118.675 E9.95521
G1 X108.788 Y118.615 E10.02001
G1 X108.238 Y118.469 E10.08147
G1 X107.775 Y118.267 E10.13603
G1 X107.293 Y117.965 E10.19746
G1 X106.836 Y117.567 E10.26291
G1 X106.345 Y116.919 E10.35071
G1 X105.936 Y116.231 E10.43715
G1 X102.964 Y111.083 E11.07914
G1 X102.629 Y110.485 E11.15316
G1 X102.382 Y109.939 E11.21789
G1 X102.233 Y109.39 E11.27932
G1 X102.156 Y108.726 E11.35152
G1 X102.306 Y107.019 E11.53658
G1 X102.502 Y104.285 E11.83261
G1 X102.619 Y101.583 E12.1247
G1 X102.662 Y98.84 E12.42098
G1 X102.626 Y96.095 E12.71747
G1 X102.515 Y93.393 E13.00953
G1 X102.323 Y90.634 E13.30822
G1 X102.186 Y89.029 E13.48219
G1 X102.182 Y88.491 E13.5403
G1 X102.277 Y87.866 E13.60857
G1 X102.482 Y87.229 E13.68084
G1 X103.001 Y86.308 E13.79502
G1 X105.96 Y81.182 E14.43424
G1 X106.355 Y80.518 E14.51768
G1 X106.686 Y80.056 E14.57906
G0 F7200 X106.973 Y80.335
G1 F1800 X107.326 Y79.972 E14.63375
G1 X107.731 Y79.67 E14.68831
G1 X108.179 Y79.436 E14.7429
G1 X108.658 Y79.275 E14.79747
G1 X109.389 Y79.179 E14.8771
G1 X110.079 Y79.169 E14.95163
G1 X116.111 Y79.169 E15.60308
G1 X116.812 Y79.179 E15.6788
G1 X117.315 Y79.226 E15.73336
G1 X117.805 Y79.352 E15.788
G1 X118.268 Y79.554 E15.84256
G1 X118.695 Y79.826 E15.89723
G1 X119.152 Y80.231 E15.96318
G1 X119.805 Y81.085 E16.07929
G1 X121.488 Y83.228 E16.37357
G1 X123.265 Y85.363 E16.67357
G1 X125.046 Y87.383 E16.96442
G1 X126.922 Y89.396 E17.2616
G1 X128.87 Y91.368 E17.56096
G1 X130.816 Y93.23 E17.85184
G1 X132.875 Y95.092 E18.15166
G1 X134.936 Y96.853 E18.44443
G1 X137.07 Y98.575 E18.74058
G1 X138.169 Y99.412 E18.88977
G1 X138.74 Y99.86 E18.96816
G1 X139.112 Y100.203 E19.02281
G1 X139.514 Y100.74 E19.09525
G1 X139.924 Y101.429 E19.18184
G1 X142.898 Y106.582 E19.8244
G1 X143.227 Y107.173 E19.89745
G1 X143.437 Y107.632 E19.95197
G1 X143.572 Y108.119 E20.00655
G1 X143.629 Y108.622 E20.06122
G1 X143.606 Y109.127 E20.11582
G1 X143.504 Y109.622 E20.1704
G1 X143.222 Y110.295 E20.24921
G1 X142.868 Y110.925 E20.32725
G1 X139.899 Y116.069 E20.9687
G1 X139.516 Y116.712 E21.04953
G1 X139.224 Y117.124 E21.10407
G1 X138.87 Y117.486 E21.15875
G1 X138.464 Y117.787 E21.21333
G1 X138.016 Y118.02 E21.26787
G1 X137.536 Y118.18 E21.32251
G1 X136.814 Y118.274 E21.40115
G1 X136.064 Y118.285 E21.48216
G1 X130.093 Y118.285 E22.12703
G1 X129.388 Y118.275 E22.20317
G1 X128.458 Y118.236 E22.3037
G1 X127.168 Y118.164 E22.44324
G1 X124.413 Y118.087 E22.74089
G1 X121.696 Y118.089 E23.03433
G1 X118.941 Y118.168 E23.33199
G1 X117.723 Y118.237 E23.46375
G1 X116.854 Y118.274 E23.55768
G1 X116.061 Y118.285 E23.64334
G1 X110.092 Y118.285 E24.28799
G1 X109.391 Y118.275 E24.3637
G1 X108.888 Y118.228 E24.41827
G1 X108.398 Y118.102 E24.47291
G1 X107.935 Y117.9 E24.52746
G1 X107.508 Y117.628 E24.58214
G1 X107.13 Y117.293 E24.63669
G1 X106.689 Y116.714 E24.71529
G1 X106.282 Y116.031 E24.80116
G1 X103.313 Y110.888 E25.44252
G1 X102.978 Y110.29 E25.51654
G1 X102.767 Y109.831 E25.5711
G1 X102.63 Y109.344 E25.62574
G1 X102.558 Y108.72 E25.69358
G1 X102.705 Y107.048 E25.87485
G1 X102.901 Y104.314 E26.17088
G1 X103.019 Y101.6 E26.46427
G1 X103.062 Y98.846 E26.76174
G1 X103.026 Y96.09 E27.05941
G1 X102.915 Y93.377 E27.35266
G1 X102.722 Y90.6 E27.6533
G1 X102.585 Y88.995 E27.82727
G1 X102.582 Y88.489 E27.88192
G1 X102.658 Y87.989 E27.93654
G1 X102.851 Y87.39 E28.00451
G1 X103.347 Y86.508 E28.11379
G1 X106.304 Y81.386 E28.75253
G1 X106.682 Y80.748 E28.83262
G1 X106.973 Y80.335 E28.88719
G10
;MESH:KFtopper.stl(2)
G0 F7200 X108.754 Y82.31
G0 X109.593 Y94.805
;TYPE:WALL-OUTER
G11
G1 F1800 X116.61 Y94.805 E29.72081
G1 X120.119 Y88.727 E30.55457
G1 X116.61 Y82.649 E31.38833
G1 X109.593 Y82.649 E32.22195
G1 X106.083 Y88.727 E33.05577
G1 X109.593 Y94.805 E33.8896
G0 F7200 X109.793 Y94.805
G0 X109.824 Y94.405
;TYPE:WALL-INNER
G1 F1800 X116.379 Y94.405 E34.56214
G1 X119.657 Y88.727 E35.23481
G1 X116.379 Y83.049 E35.90749
G1 X109.824 Y83.049 E36.58003
G1 X106.545 Y88.727 E37.25276
G1 X109.824 Y94.405 E37.92549
G0 F7200 X110.009 Y94.084
;TYPE:SKIN
G1 F1200 X116.194 Y94.084 E38.52834
G1 X119.287 Y88.728 E39.13118
G1 X116.194 Y83.37 E39.7342
G1 X110.009 Y83.37 E40.33705
G1 X106.915 Y88.728 E40.94011
G1 X110.009 Y94.084 E41.54301
G0 F7200 X110.288 Y93.883
G1 F1200 X109.896 Y93.491 E41.59704
G0 F7200 X110.854 Y93.883
G1 F1200 X109.122 Y92.152 E41.83572
G1 X109.052 Y92.082
G0 F7200 X108.642 Y92.318
G0 X107.917 Y91.062
G0 X108.349 Y90.813
G1 F1200 X111.42 Y93.883 E42.25897
G0 F7200 X111.985 Y93.883
G1 F1200 X107.575 Y89.473 E42.86686
G1 X107.505 Y89.403
G0 F7200 X107.236 Y88.568
G1 F1200 X112.551 Y93.883 E43.59949
G0 F7200 X113.117 Y93.883
G1 F1200 X107.443 Y88.21 E44.38155
G0 F7200 X107.65 Y87.851
G1 F1200 X113.682 Y93.883 E45.21302
G0 F7200 X114.248 Y93.883
G1 F1200 X107.857 Y87.493 E46.09391
G0 F7200 X108.065 Y87.134
G1 F1200 X114.814 Y93.883 E47.02421
G0 F7200 X115.38 Y93.883
G1 F1200 X108.271 Y86.775 E48.00407
G0 F7200 X108.478 Y86.416
G1 F1200 X115.945 Y93.883 E49.03335
G0 F7200 X116.236 Y93.608
G1 F1200 X108.685 Y86.058 E50.07414
G0 F7200 X108.893 Y85.699
G1 F1200 X116.443 Y93.25 E51.11492
G0 F7200 X116.65 Y92.891
G1 F1200 X109.1 Y85.341 E52.15564
G0 F7200 X109.307 Y84.982
G1 F1200 X116.857 Y92.533 E53.19643
G0 F7200 X117.065 Y92.174
G1 F1200 X109.514 Y84.624 E54.23721
G0 F7200 X109.721 Y84.265
G1 F1200 X117.272 Y91.816 E55.27807
G0 F7200 X117.479 Y91.457
G1 F1200 X109.928 Y83.906 E56.31892
G0 F7200 X110.157 Y83.57
G1 F1200 X117.686 Y91.099 E57.35675
G0 F7200 X117.893 Y90.74
G1 F1200 X110.723 Y83.57 E58.34508
G0 F7200 X111.288 Y83.57
G1 F1200 X118.1 Y90.381 E59.284
G0 F7200 X118.307 Y90.023
G1 F1200 X111.854 Y83.57 E60.17351
G0 F7200 X112.42 Y83.57
G1 F1200 X118.514 Y89.664 E61.01353
G0 F7200 X118.721 Y89.306
G1 F1200 X112.985 Y83.57 E61.80419
G0 F7200 X113.551 Y83.57
G1 F1200 X118.928 Y88.947 E62.54538
G0 F7200 X118.756 Y88.209
G1 F1200 X114.117 Y83.57 E63.18483
G0 F7200 X114.682 Y83.57
G1 F1200 X117.983 Y86.87 E63.63979
G1 X118.053 Y86.94
G0 F7200 X118.465 Y86.704
G0 X117.644 Y85.282
G0 X117.21 Y85.531
G1 F1200 X115.248 Y83.57 E63.91017
G0 F7200 X115.814 Y83.57
G1 F1200 X116.437 Y84.193 E63.99604
G1 X116.507 Y84.263
G10
;MESH:KFtopper.stl
G0 F7200 X116.919 Y84.026
G0 X119.558 Y88.727
G0 X116.33 Y94.319
G0 X109.757 Y94.585
G0 X109.757 Y95.701
G0 X109.757 Y101.753
G0 X109.593 Y114.805
;TYPE:WALL-OUTER
G11
G1 F1800 X116.61 Y114.805 E64.82966
G1 X120.119 Y108.727 E65.66342
G1 X116.61 Y102.649 E66.49719
G1 X109.593 Y102.649 E67.33081
G1 X106.083 Y108.727 E68.16463
G1 X109.593 Y114.805 E68.99845
G0 F7200 X109.793 Y114.805
G0 X109.824 Y114.405
;TYPE:WALL-INNER
G1 F1800 X116.379 Y114.405 E69.67099
G1 X119.657 Y108.727 E70.34367
G1 X116.379 Y103.049 E71.01634
G1 X109.824 Y103.049 E71.68889
G1 X106.545 Y108.727 E72.36161
G1 X109.824 Y114.405 E73.03434
G0 F7200 X110.009 Y114.084
;TYPE:SKIN
G1 F1200 X116.194 Y114.084 E73.63719
G1 X119.287 Y108.728 E74.24004
G1 X116.194 Y103.37 E74.84305
G1 X110.009 Y103.37 E75.4459
G1 X106.915 Y108.728 E76.04897
G1 X110.009 Y114.084 E76.65186
G0 F7200 X110.488 Y113.883
G1 F1200 X109.624 Y113.018 E76.77103
G1 X109.554 Y112.948
G0 F7200 X109.143 Y113.185
G0 X108.418 Y111.929
G0 X108.851 Y111.679
G1 F1200 X111.054 Y113.883 E77.07477
G0 F7200 X111.62 Y113.883
G1 F1200 X108.077 Y110.34 E77.56314
G1 X108.007 Y110.27
G0 F7200 X107.596 Y110.507
G0 X106.871 Y109.25
G0 X107.304 Y109.001
G1 F1200 X112.186 Y113.883 E78.2361
G0 F7200 X112.751 Y113.883
G1 F1200 X107.309 Y108.441 E78.98624
G0 F7200 X107.517 Y108.082
G1 F1200 X113.317 Y113.883 E79.7858
G0 F7200 X113.883 Y113.883
G1 F1200 X107.724 Y107.724 E80.63478
G0 F7200 X107.931 Y107.365
G1 F1200 X114.448 Y113.883 E81.53317
G0 F7200 X115.014 Y113.883
G1 F1200 X108.138 Y107.007 E82.48098
G0 F7200 X108.345 Y106.647
G1 F1200 X115.58 Y113.883 E83.47835
G0 F7200 X116.102 Y113.839
G1 F1200 X108.552 Y106.289 E84.51907
G0 F7200 X108.759 Y105.93
G1 F1200 X116.309 Y113.481 E85.55985
G0 F7200 X116.517 Y113.122
G1 F1200 X108.966 Y105.572 E86.60064
G0 F7200 X109.173 Y105.213
G1 F1200 X116.724 Y112.764 E87.6415
G0 F7200 X116.931 Y112.405
G1 F1200 X109.38 Y104.855 E88.68228
G0 F7200 X109.588 Y104.496
G1 F1200 X117.138 Y112.047 E89.72307
G0 F7200 X117.345 Y111.688
G1 F1200 X109.794 Y104.137 E90.76392
G0 F7200 X110.001 Y103.779
G1 F1200 X117.552 Y111.33 E91.80478
G0 F7200 X117.759 Y110.971
G1 F1200 X110.358 Y103.569 E92.82503
G0 F7200 X110.923 Y103.569
G1 F1200 X117.966 Y110.612 E93.79586
G0 F7200 X118.173 Y110.254
G1 F1200 X111.489 Y103.569 E94.71727
G0 F7200 X112.055 Y103.569
G1 F1200 X118.38 Y109.895 E95.5892
G0 F7200 X118.588 Y109.537
G1 F1200 X112.62 Y103.569 E96.41185
G0 F7200 X113.186 Y103.569
G1 F1200 X118.795 Y109.178 E97.18501
G0 F7200 X119.002 Y108.82
G1 F1200 X113.752 Y103.569 E97.90876
G0 F7200 X114.317 Y103.569
G1 F1200 X118.479 Y107.731 E98.48247
G1 X118.549 Y107.801
G0 F7200 X118.961 Y107.564
G0 X118.141 Y106.144
G0 X117.707 Y106.393
G1 F1200 X114.883 Y103.569 E98.87173
G0 F7200 X115.449 Y103.569
G1 F1200 X116.934 Y105.055 E99.0765
G1 X117.004 Y105.125
G0 F7200 X117.417 Y104.888
G0 X116.597 Y103.467
G0 X116.162 Y103.717
G1 F1200 X116.015 Y103.569 E99.09683
G10
;MESH:KFtopper.stl(1)
G0 F7200 X116.015 Y103.069
G0 X119.869 Y108.727
G0 X120.832 Y109.281
G0 X125.37 Y109.284
G0 X129.593 Y114.805
;TYPE:WALL-OUTER
G11
G1 F1800 X136.61 Y114.805 E99.93045
G1 X140.119 Y108.727 E100.76422
G1 X136.61 Y102.649 E101.59798
G1 X129.593 Y102.649 E102.4316
G1 X126.083 Y108.727 E103.26542
G1 X129.593 Y114.805 E104.09924
G0 F7200 X129.793 Y114.805
G0 X129.824 Y114.405
;TYPE:WALL-INNER
G1 F1800 X136.379 Y114.405 E104.77178
G1 X139.657 Y108.727 E105.44446
G1 X136.379 Y103.049 E106.11714
G1 X129.824 Y103.049 E106.78968
G1 X126.545 Y108.727 E107.46241
G1 X129.824 Y114.405 E108.13513
G0 F7200 X130.009 Y114.084
;TYPE:SKIN
G1 F1200 X136.194 Y114.084 E108.73798
G1 X139.287 Y108.728 E109.34083
G1 X136.194 Y103.37 E109.94384
G1 X130.009 Y103.37 E110.5467
G1 X126.915 Y108.728 E111.14976
G1 X130.009 Y114.084 E111.75265
G0 F7200 X130.288 Y113.883
G1 F1200 X129.896 Y113.492 E111.80662
G0 F7200 X130.854 Y113.883
G1 F1200 X129.123 Y112.152 E112.04523
G1 X129.053 Y112.082
G0 F7200 X128.643 Y112.319
G0 X127.917 Y111.062
G0 X128.349 Y110.813
G1 F1200 X131.42 Y113.883 E112.46847
G0 F7200 X131.985 Y113.883
G1 F1200 X127.576 Y109.474 E113.07622
G1 X127.506 Y109.404
G0 F7200 X127.236 Y108.569
G1 F1200 X132.551 Y113.883 E113.80879
G0 F7200 X133.117 Y113.883
G1 F1200 X127.443 Y108.21 E114.59085
G0 F7200 X127.651 Y107.852
G1 F1200 X133.682 Y113.883 E115.42218
G0 F7200 X134.248 Y113.883
G1 F1200 X127.857 Y107.492 E116.30314
G0 F7200 X128.064 Y107.134
G1 F1200 X134.814 Y113.883 E117.23351
G0 F7200 X135.379 Y113.883
G1 F1200 X128.271 Y106.775 E118.2133
G0 F7200 X128.479 Y106.417
G1 F1200 X135.945 Y113.883 E119.24244
G0 F7200 X136.236 Y113.608
G1 F1200 X128.686 Y106.058 E120.28316
G0 F7200 X128.892 Y105.699
G1 F1200 X136.443 Y113.25 E121.32402
G0 F7200 X136.65 Y112.891
G1 F1200 X129.1 Y105.341 E122.36473
G0 F7200 X129.307 Y104.982
G1 F1200 X136.857 Y112.533 E123.40552
G0 F7200 X137.064 Y112.174
G1 F1200 X129.514 Y104.624 E124.44624
G0 F7200 X129.72 Y104.265
G1 F1200 X137.272 Y111.816 E125.48716
G0 F7200 X137.479 Y111.457
G1 F1200 X129.928 Y103.906 E126.52802
G0 F7200 X130.157 Y103.569
G1 F1200 X137.686 Y111.099 E127.56591
G0 F7200 X137.893 Y110.74
G1 F1200 X130.722 Y103.569 E128.55438
G0 F7200 X131.288 Y103.569
G1 F1200 X138.1 Y110.381 E129.49337
G0 F7200 X138.307 Y110.022
G1 F1200 X131.854 Y103.569 E130.38288
G0 F7200 X132.419 Y103.569
G1 F1200 X138.514 Y109.664 E131.22303
G0 F7200 X138.721 Y109.305
G1 F1200 X132.985 Y103.569 E132.0137
G0 F7200 X133.551 Y103.569
G1 F1200 X138.928 Y108.947 E132.75495
G0 F7200 X138.756 Y108.209
G1 F1200 X134.116 Y103.569 E133.39455
G0 F7200 X134.682 Y103.569
G1 F1200 X137.983 Y106.87 E133.84957
G1 X138.053 Y106.94
G0 F7200 X138.465 Y106.704
G0 X137.644 Y105.281
G0 X137.209 Y105.531
G1 F1200 X135.248 Y103.569 E134.11995
G0 F7200 X135.813 Y103.569
G1 F1200 X136.436 Y104.192 E134.20583
G1 X136.506 Y104.262
G10
;MESH:NONMESH
G0 F600 X136.506 Y104.262 Z0.37
G0 F7200 X136.919 Y104.025
G0 X136.33 Y103.135
G0 X129.717 Y102.866
G0 X128.754 Y102.31
G0 X121.147 Y88.727
G0 X117.125 Y81.759
G0 X106.973 Y80.335
;TIME_ELAPSED:66.137222
;LAYER:1
M106 S255
;TYPE:SKIRT
G11
G1 F1800 X107.326 Y79.972 E134.22608
G1 X107.731 Y79.67 E134.24629
G1 X108.179 Y79.436 E134.2665
G1 X108.658 Y79.275 E134.28672
G1 X109.389 Y79.179 E134.31621
G1 X110.079 Y79.169 E134.34381
G1 X116.111 Y79.169 E134.58509
G1 X116.812 Y79.179 E134.61313
G1 X117.315 Y79.226 E134.63334
G1 X117.805 Y79.352 E134.65358
G1 X118.268 Y79.554 E134.67379
G1 X118.695 Y79.826 E134.69404
G1 X119.152 Y80.231 E134.71846
G1 X119.805 Y81.085 E134.76146
G1 X121.488 Y83.228 E134.87046
G1 X123.265 Y85.363 E134.98157
G1 X125.046 Y87.383 E135.08929
G1 X126.922 Y89.396 E135.19936
G1 X128.87 Y91.368 E135.31023
G1 X130.816 Y93.23 E135.41796
G1 X132.875 Y95.092 E135.52901
G1 X134.936 Y96.853 E135.63744
G1 X137.07 Y98.575 E135.74713
G1 X138.169 Y99.412 E135.80238
G1 X138.74 Y99.86 E135.83142
G1 X139.112 Y100.203 E135.85166
G1 X139.514 Y100.74 E135.87849
G1 X139.924 Y101.429 E135.91056
G1 X142.898 Y106.582 E136.14854
G1 X143.227 Y107.173 E136.1756
G1 X143.437 Y107.632 E136.19579
G1 X143.572 Y108.119 E136.216
G1 X143.629 Y108.622 E136.23625
G1 X143.606 Y109.127 E136.25647
G1 X143.504 Y109.622 E136.27669
G1 X143.222 Y110.295 E136.30588
G1 X142.868 Y110.925 E136.33478
G1 X139.899 Y116.069 E136.57236
G1 X139.516 Y116.712 E136.60229
G1 X139.224 Y117.124 E136.62249
G1 X138.87 Y117.486 E136.64275
G1 X138.464 Y117.787 E136.66296
G1 X138.016 Y118.02 E136.68316
G1 X137.536 Y118.18 E136.7034
G1 X136.814 Y118.274 E136.73252
G1 X136.064 Y118.285 E136.76253
G1 X130.093 Y118.285 E137.00137
G1 X129.388 Y118.275 E137.02957
G1 X128.458 Y118.236 E137.0668
G1 X127.168 Y118.164 E137.11848
G1 X124.413 Y118.087 E137.22873
G1 X121.696 Y118.089 E137.33741
G1 X118.941 Y118.168 E137.44765
G1 X117.723 Y118.237 E137.49645
