;FLAVOR:UltiGCode
;TIME:17993
;MATERIAL:20971
;MATERIAL2:0
;NOZZLE_DIAMETER:0.4
;MINX:62.71
;MINY:85.61
;MINZ:0.27
;MAXX:159.224
;MAXY:137.49
;MAXZ:36.37
;TARGET_MACHINE.NAME:Ultimaker 2+
;Generated with Cura_SteamEngine 5.6.0
M82 ;absolute extrusion mode
G0 F3000 Y50 ;avoid prime blob
G92 E0
G92 E0
G10
;LAYER_COUNT:362
;LAYER:0
M107
G0 F7200 X67.844 Y89.613 Z0.27
;TYPE:SKIRT
G11
G1 F1800 X65.782 Y91.607 E0.30979
G1 X64.647 Y93.31 E0.53082
G1 X64.185 Y95.398 E0.76178
G1 X64.171 Y104.96 E1.79447
G1 X64.162 Y105.522 E1.85518
G1 X63.25 Y106.958 E2.0389
G1 X62.71 Y109.108 E2.27831
G1 X62.71 Y113.973 E2.80373
G1 X63.297 Y116.154 E3.04766
G1 X64.094 Y117.443 E3.21134
G1 X64.202 Y127.874 E4.33794
G1 X65.21 Y130.908 E4.68323
G1 X67.204 Y132.964 E4.99255
G1 X68.915 Y134.087 E5.21359
G1 X70.997 Y134.547 E5.44387
G1 X75.309 Y134.547 E5.90956
G1 X77.546 Y134.064 E6.15673
G1 X77.866 Y133.892 E6.19596
G1 X79.665 Y134.99 E6.42358
G1 X81.593 Y135.41 E6.63669
G1 X86.203 Y135.41 E7.13457
G1 X89.26 Y134.419 E7.48164
G1 X90.437 Y133.277 E7.65876
G1 X90.783 Y133.502 E7.70333
G1 X93.375 Y134.547 E8.00516
G1 X127.242 Y134.572 E11.6628
G1 X128.264 Y135.053 E11.78479
G1 X129.794 Y135.388 E11.95394
G1 X130.231 Y135.442 E12.0015
G1 X130.984 Y135.963 E12.10039
G1 X133.148 Y136.489 E12.34091
G1 X135.948 Y136.491 E12.64331
G1 X137.34 Y137.106 E12.80766
G1 X139.31 Y137.49 E13.02443
G1 X141.654 Y137.49 E13.27758
G1 X145.063 Y137.442 E13.64579
G1 X147.006 Y136.5 E13.87899
G1 X148.19 Y136.475 E14.00689
G1 X150.539 Y135.942 E14.26703
G1 X153.303 Y134.095 E14.62606
G1 X154.026 Y132.862 E14.78043
G1 X155.759 Y132.221 E14.97999
G1 X158.305 Y129.637 E15.37176
G1 X159.216 Y126.851 E15.68833
G1 X159.196 Y123.074 E16.09625
G1 X159.179 Y122.366 E16.17274
G1 X159.222 Y118.708 E16.56783
G1 X158.703 Y116.887 E16.77233
G1 X157.515 Y114.744 E17.03695
G1 X157.166 Y114.367 E17.09244
G1 X157.149 Y108.834 E17.69001
G1 X157.368 Y108.603 E17.72438
G1 X158.763 Y106.47 E17.99964
G1 X159.215 Y104.214 E18.24813
G1 X159.207 Y101.443 E18.5474
G1 X159.154 Y100.617 E18.63679
G1 X159.175 Y100.424 E18.65776
G1 X159.224 Y96.562 E19.07489
G1 X158.3 Y93.613 E19.40865
G1 X155.698 Y90.773 E19.82464
G1 X153.973 Y90.116 E20.02399
G1 X153.677 Y89.606 E20.08768
G1 X151.345 Y87.455 E20.43031
G1 X148.73 Y86.61 E20.72711
G1 X145.615 Y86.61 E21.06353
G1 X144.366 Y86.02 E21.21271
G1 X142.26 Y85.61 E21.44443
G1 X139.981 Y85.613 E21.69056
G1 X136.608 Y85.706 E22.05499
G1 X134.679 Y86.602 E22.2847
G1 X132.355 Y86.629 E22.5357
G1 X130.42 Y87.638 E22.77139
G1 X129.658 Y87.675 E22.85378
G1 X127.665 Y88.45 E23.08473
G1 X127.352 Y88.598 E23.12212
G1 X93.694 Y88.61 E26.75718
G1 X90.8 Y89.555 E27.08598
G1 X90.446 Y89.818 E27.13361
G1 X89.305 Y88.642 E27.31057
G1 X86.505 Y87.69 E27.62997
G1 X81.5 Y87.69 E28.17051
G1 X78.428 Y88.693 E28.51952
G1 X77.888 Y89.218 E28.60086
G1 X75.608 Y88.602 E28.85593
G1 X70.912 Y88.61 E29.3631
G1 X67.844 Y89.613 E29.7117
G0 F7200 X68.055 Y89.964
G1 F1800 X70.975 Y89.01 E30.04347
G1 X75.557 Y89.002 E30.53832
G1 X77.737 Y89.585 E30.78204
G1 X77.961 Y89.705 E30.80948
G1 X78.641 Y89.044 E30.9119
G1 X81.563 Y88.09 E31.24387
G1 X86.438 Y88.09 E31.77037
G1 X89.085 Y88.99 E32.07232
G1 X90.421 Y90.366 E32.27945
G1 X90.924 Y89.935 E32.35099
G1 X93.757 Y89.01 E32.67285
G1 X127.443 Y88.998 E36.31094
G1 X127.836 Y88.812 E36.35789
G1 X129.742 Y88.072 E36.57871
G1 X130.527 Y88.034 E36.66359
G1 X132.456 Y87.028 E36.89855
G1 X134.771 Y87.001 E37.14859
G1 X136.702 Y86.104 E37.37854
G1 X139.982 Y86.013 E37.73292
G1 X142.219 Y86.01 E37.97451
G1 X144.241 Y86.404 E38.197
G1 X145.524 Y87.01 E38.35024
G1 X148.666 Y87.01 E38.68958
G1 X151.139 Y87.809 E38.97025
G1 X153.406 Y89.9 E39.30333
G1 X153.689 Y90.436 E39.3688
G1 X155.467 Y91.113 E39.57427
G1 X157.944 Y93.817 E39.97031
G1 X158.823 Y96.622 E40.28777
G1 X158.777 Y100.38 E40.69367
G1 X158.752 Y100.605 E40.71812
G1 X158.807 Y101.444 E40.80892
G1 X158.815 Y104.175 E41.10387
G1 X158.386 Y106.315 E41.33959
G1 X157.033 Y108.384 E41.60658
G1 X156.749 Y108.671 E41.65019
G1 X156.766 Y114.531 E42.28307
G1 X157.165 Y114.938 E42.34463
G1 X158.33 Y117.04 E42.60418
G1 X158.821 Y118.763 E42.79767
G1 X158.779 Y122.361 E43.18628
G1 X158.796 Y123.076 E43.26352
G1 X158.816 Y126.789 E43.66453
G1 X157.955 Y129.422 E43.96371
G1 X155.536 Y131.877 E44.33594
G1 X153.754 Y132.536 E44.54113
G1 X153.005 Y133.813 E44.70102
G1 X150.377 Y135.569 E45.04238
G1 X148.142 Y136.076 E45.28989
G1 X146.911 Y136.102 E45.42287
G1 X144.969 Y137.043 E45.65593
G1 X141.648 Y137.09 E46.01463
G1 X139.35 Y137.09 E46.26281
G1 X137.461 Y136.722 E46.47066
G1 X136.033 Y136.091 E46.63927
G1 X133.198 Y136.089 E46.94545
G1 X131.15 Y135.591 E47.17308
G1 X130.378 Y135.057 E47.27446
G1 X129.88 Y134.997 E47.32863
G1 X128.392 Y134.671 E47.49315
G1 X127.364 Y134.187 E47.61586
G1 X126.864 Y134.172 E47.66989
G1 X93.453 Y134.147 E51.27827
G1 X90.933 Y133.131 E51.57172
G1 X90.392 Y132.763 E51.64239
G1 X89.048 Y134.067 E51.84463
G1 X86.139 Y135.01 E52.1749
G1 X81.637 Y135.01 E52.66111
G1 X79.814 Y134.613 E52.86261
G1 X78.155 Y133.6 E53.07254
G1 X77.926 Y133.382 E53.10669
G1 X77.462 Y133.673 E53.16584
G1 X75.267 Y134.147 E53.40837
G1 X71.042 Y134.147 E53.86467
G1 X69.072 Y133.712 E54.08255
G1 X67.459 Y132.653 E54.29095
G1 X65.562 Y130.697 E54.58523
G1 X64.601 Y127.806 E54.91425
G1 X64.493 Y117.328 E56.04594
G1 X63.668 Y115.994 E56.21533
G1 X63.11 Y113.921 E56.44719
G1 X63.11 Y109.157 E56.9617
G1 X63.622 Y107.118 E57.18875
G1 X64.56 Y105.641 E57.37771
G1 X64.571 Y104.967 E57.45051
G1 X64.585 Y95.444 E58.479
G1 X65.022 Y93.469 E58.69746
G1 X66.093 Y91.862 E58.90603
G1 X68.055 Y89.964 E59.20085
G0 F7200 X68.268 Y90.315
G1 F1800 X71.038 Y89.41 E59.51557
G1 X75.507 Y89.402 E59.99822
G1 X77.634 Y89.971 E60.23601
G1 X78.012 Y90.213 E60.28449
G1 X78.854 Y89.395 E60.41127
G1 X81.626 Y88.49 E60.7262
G1 X86.371 Y88.49 E61.23866
G1 X88.865 Y89.338 E61.52315
G1 X90.413 Y90.932 E61.76313
G1 X91.048 Y90.315 E61.85875
G1 X93.82 Y89.41 E62.17368
G1 X127.534 Y89.398 E65.81479
G1 X128.007 Y89.174 E65.87131
G1 X129.826 Y88.469 E66.082
G1 X130.634 Y88.43 E66.16937
G1 X132.557 Y87.427 E66.4036
G1 X134.863 Y87.4 E66.65267
G1 X136.796 Y86.502 E66.88286
G1 X139.983 Y86.413 E67.22719
G1 X142.179 Y86.41 E67.46436
G1 X144.115 Y86.787 E67.67737
G1 X145.433 Y87.41 E67.83482
G1 X148.602 Y87.41 E68.17707
G1 X150.933 Y88.163 E68.44163
G1 X153.135 Y90.194 E68.76516
G1 X153.396 Y90.752 E68.83169
G1 X155.236 Y91.453 E69.04434
G1 X157.588 Y94.021 E69.42043
G1 X158.422 Y96.682 E69.7216
G1 X158.379 Y100.337 E70.11637
G1 X158.351 Y100.594 E70.14429
G1 X158.407 Y101.445 E70.2364
G1 X158.415 Y104.136 E70.52703
G1 X158.009 Y106.16 E70.74997
G1 X156.698 Y108.165 E71.00869
G1 X156.348 Y108.502 E71.06117
G1 X156.367 Y114.702 E71.73077
G1 X156.815 Y115.132 E71.79784
G1 X157.957 Y117.193 E72.05231
G1 X158.42 Y118.818 E72.23479
G1 X158.379 Y122.356 E72.61692
G1 X158.354 Y122.578 E72.64105
G1 X158.397 Y123.108 E72.69848
G1 X158.416 Y126.727 E73.08934
G1 X157.605 Y129.207 E73.37114
G1 X155.313 Y131.533 E73.72381
G1 X153.482 Y132.21 E73.93464
G1 X152.707 Y133.531 E74.10005
G1 X150.215 Y135.196 E74.42373
G1 X148.094 Y135.677 E74.65862
G1 X146.816 Y135.704 E74.79667
G1 X144.875 Y136.644 E75.02959
G1 X141.642 Y136.69 E75.37879
G1 X139.391 Y136.69 E75.62189
G1 X137.581 Y136.337 E75.82106
G1 X136.118 Y135.691 E75.99378
G1 X133.248 Y135.689 E76.30374
G1 X131.316 Y135.219 E76.51848
G1 X130.525 Y134.672 E76.62235
G1 X129.966 Y134.606 E76.68314
G1 X128.52 Y134.289 E76.84301
G1 X127.459 Y133.79 E76.96964
G1 X126.876 Y133.772 E77.03264
G1 X93.531 Y133.747 E80.6339
G1 X91.123 Y132.776 E80.91431
G1 X90.348 Y132.248 E81.01559
G1 X88.836 Y133.715 E81.24311
G1 X86.075 Y134.61 E81.55658
G1 X81.681 Y134.61 E82.03113
G1 X79.963 Y134.236 E82.22102
G1 X78.363 Y133.259 E82.42349
G1 X77.974 Y132.857 E82.4839
G1 X77.378 Y133.282 E82.56296
G1 X75.225 Y133.747 E82.80084
G1 X71.087 Y133.747 E83.24775
G1 X69.229 Y133.337 E83.45324
G1 X67.714 Y132.342 E83.64899
G1 X65.914 Y130.486 E83.92822
G1 X65 Y127.738 E84.24099
G1 X64.892 Y117.213 E85.37775
G1 X64.039 Y115.834 E85.55288
G1 X63.51 Y113.869 E85.77265
G1 X63.51 Y109.206 E86.27626
G1 X63.994 Y107.278 E86.49094
G1 X64.958 Y105.76 E86.68515
G1 X64.971 Y104.974 E86.77005
G1 X64.985 Y95.49 E87.79432
G1 X65.397 Y93.628 E88.00028
G1 X66.402 Y92.12 E88.196
G1 X68.268 Y90.315 E88.47638
G0 F7200 X68.481 Y90.666
G1 F1800 X71.101 Y89.81 E88.77406
G1 X75.457 Y89.802 E89.24451
G1 X77.531 Y90.357 E89.47638
G1 X78.049 Y90.736 E89.5457
G1 X79.067 Y89.746 E89.69906
G1 X81.689 Y88.89 E89.99695
G1 X86.304 Y88.89 E90.49537
G1 X88.645 Y89.686 E90.76241
G1 X90.405 Y91.498 E91.03523
G1 X91.261 Y90.666 E91.16415
G1 X93.883 Y89.81 E91.46203
G1 X127.623 Y89.798 E95.10595
G1 X128.152 Y89.547 E95.16919
G1 X129.909 Y88.866 E95.3727
G1 X130.741 Y88.826 E95.46266
G1 X132.658 Y87.826 E95.69617
G1 X134.953 Y87.799 E95.94405
G1 X136.889 Y86.9 E96.17458
G1 X139.984 Y86.813 E96.50897
G1 X142.138 Y86.81 E96.74161
G1 X143.99 Y87.171 E96.94539
G1 X145.342 Y87.81 E97.10689
G1 X148.538 Y87.81 E97.45206
G1 X150.727 Y88.517 E97.70049
G1 X152.806 Y90.434 E98.00591
G1 X153.103 Y91.068 E98.08152
G1 X155.005 Y91.793 E98.30136
G1 X157.232 Y94.225 E98.6575
G1 X158.021 Y96.742 E98.94237
G1 X157.981 Y100.294 E99.32602
G1 X157.95 Y100.583 E99.35741
G1 X158.007 Y101.446 E99.45081
G1 X158.015 Y104.097 E99.73712
G1 X157.632 Y106.005 E99.9473
G1 X156.363 Y107.946 E100.19775
G1 X155.947 Y108.326 E100.2586
G1 X155.968 Y114.881 E100.96655
G1 X156.465 Y115.326 E101.03859
G1 X157.585 Y117.347 E101.28814
G1 X158.019 Y118.872 E101.45938
G1 X157.981 Y122.311 E101.83081
G1 X157.952 Y122.57 E101.85896
G1 X157.998 Y123.14 E101.92072
G1 X158.016 Y126.665 E102.30142
G1 X157.255 Y128.992 E102.56584
G1 X155.09 Y131.189 E102.89896
G1 X153.209 Y131.885 E103.11557
G1 X152.408 Y133.249 E103.2864
G1 X150.053 Y134.823 E103.59232
G1 X148.046 Y135.278 E103.81458
G1 X146.721 Y135.306 E103.95771
G1 X144.781 Y136.245 E104.19048
G1 X141.636 Y136.29 E104.53018
G1 X139.432 Y136.29 E104.76821
G1 X137.699 Y135.952 E104.9589
G1 X136.261 Y135.318 E105.12863
G1 X135.706 Y135.291 E105.18864
G1 X133.297 Y135.289 E105.44881
G1 X131.483 Y134.848 E105.65043
G1 X130.672 Y134.287 E105.75693
G1 X130.052 Y134.215 E105.82434
G1 X128.648 Y133.907 E105.97958
G1 X127.554 Y133.392 E106.11017
G1 X126.888 Y133.372 E106.18213
G1 X93.609 Y133.347 E109.77626
G1 X91.309 Y132.42 E110.04408
G1 X90.303 Y131.734 E110.17558
G1 X88.624 Y133.363 E110.42824
G1 X86.011 Y134.21 E110.7249
G1 X81.725 Y134.21 E111.18778
G1 X80.112 Y133.859 E111.36607
G1 X78.615 Y132.945 E111.55549
G1 X78.021 Y132.331 E111.64776
G1 X77.213 Y132.908 E111.75499
G1 X75.182 Y133.347 E111.9794
G1 X71.132 Y133.347 E112.4168
G1 X69.386 Y132.962 E112.6099
G1 X67.969 Y132.031 E112.79301
G1 X66.266 Y130.275 E113.0572
G1 X65.399 Y127.67 E113.35371
G1 X65.291 Y117.097 E114.49565
G1 X64.409 Y115.672 E114.67665
G1 X63.91 Y113.817 E114.88411
G1 X63.91 Y109.256 E115.3767
G1 X64.367 Y107.438 E115.57915
G1 X65.199 Y106.126 E115.74694
G1 X65.355 Y105.946 E115.77266
G1 X65.371 Y104.981 E115.8769
G1 X65.385 Y95.536 E116.89696
G1 X65.772 Y93.787 E117.09042
G1 X66.711 Y92.378 E117.27329
G1 X68.481 Y90.666 E117.53923
G0 F7200 X68.694 Y91.017
G1 F1800 X71.164 Y90.21 E117.81987
G1 X75.407 Y90.202 E118.27812
G1 X77.428 Y90.743 E118.50407
G1 X78.071 Y91.272 E118.59399
G1 X79.28 Y90.097 E118.77607
G1 X81.752 Y89.29 E119.05691
G1 X86.237 Y89.29 E119.54129
G1 X88.425 Y90.034 E119.79089
G1 X90.397 Y92.064 E120.09654
G1 X91.474 Y91.017 E120.25876
G1 X93.946 Y90.21 E120.5396
G1 X127.713 Y90.198 E124.18644
G1 X128.297 Y89.92 E124.25629
G1 X129.992 Y89.263 E124.45262
G1 X130.908 Y89.219 E124.55167
G1 X131.104 Y89.088 E124.57713
G1 X132.759 Y88.225 E124.77871
G1 X135.044 Y88.198 E125.02551
G1 X136.982 Y87.298 E125.25628
G1 X139.985 Y87.213 E125.58073
G1 X142.098 Y87.21 E125.80894
G1 X143.864 Y87.554 E126.00325
G1 X145.251 Y88.21 E126.16895
G1 X148.474 Y88.21 E126.51704
G1 X150.521 Y88.871 E126.74936
G1 X152.477 Y90.675 E127.03673
G1 X152.845 Y91.459 E127.13027
G1 X153.121 Y91.503 E127.16045
G1 X154.775 Y92.134 E127.35164
G1 X156.876 Y94.429 E127.68768
G1 X157.62 Y96.802 E127.95627
G1 X157.583 Y100.252 E128.32889
G1 X157.549 Y100.573 E128.36375
G1 X157.607 Y101.447 E128.45835
G1 X157.615 Y104.058 E128.74034
G1 X157.255 Y105.85 E128.93774
G1 X156.028 Y107.727 E129.17993
G1 X155.546 Y108.143 E129.24869
G1 X155.569 Y115.061 E129.99584
G1 X156.148 Y115.579 E130.07974
G1 X157.213 Y117.501 E130.31706
G1 X157.618 Y118.926 E130.47705
G1 X157.583 Y122.267 E130.8379
G1 X157.55 Y122.563 E130.87006
G1 X157.599 Y123.172 E130.93605
G1 X157.616 Y126.603 E131.3066
G1 X156.905 Y128.777 E131.55363
G1 X154.867 Y130.845 E131.8672
G1 X152.936 Y131.56 E132.08959
G1 X152.109 Y132.967 E132.26585
G1 X149.892 Y134.449 E132.55386
G1 X147.997 Y134.879 E132.76372
G1 X146.626 Y134.908 E132.91182
G1 X144.687 Y135.846 E133.14445
G1 X141.63 Y135.89 E133.47464
G1 X139.473 Y135.89 E133.7076
G1 X137.817 Y135.567 E133.88981
G1 X136.353 Y134.921 E134.06263
G1 X135.725 Y134.891 E134.13054
G1 X133.347 Y134.889 E134.38736
G1 X131.649 Y134.476 E134.57609
G1 X130.818 Y133.901 E134.68523
G1 X130.138 Y133.824 E134.75914
G1 X128.776 Y133.525 E134.90974
G1 X127.649 Y132.995 E135.04424
G1 X126.9 Y132.972 E135.12517
G1 X93.686 Y132.947 E138.71228
G1 X91.497 Y132.065 E138.96716
G1 X90.258 Y131.22 E139.12913
G1 X88.412 Y133.011 E139.40691
G1 X85.947 Y133.81 E139.68677
G1 X81.769 Y133.81 E140.13799
G1 X80.261 Y133.482 E140.30467
G1 X78.867 Y132.631 E140.48105
G1 X78.068 Y131.806 E140.60509
G1 X77.047 Y132.535 E140.74058
G1 X75.14 Y132.947 E140.95129
G1 X71.177 Y132.947 E141.37929
G1 X69.543 Y132.587 E141.56
G1 X68.224 Y131.72 E141.73047
G1 X66.618 Y130.064 E141.97961
G1 X65.798 Y127.602 E142.25986
G1 X65.69 Y116.931 E143.41239
G1 X65.498 Y116.671 E143.4473
G1 X64.779 Y115.51 E143.59478
G1 X64.31 Y113.765 E143.78993
G1 X64.31 Y109.305 E144.27161
G1 X64.739 Y107.598 E144.4617
G1 X65.537 Y106.34 E144.62259
G1 X65.753 Y106.104 E144.65715
G1 X65.771 Y104.987 E144.7778
G1 X65.785 Y95.582 E145.79354
G1 X66.147 Y93.946 E145.9745
G1 X67.02 Y92.636 E146.14452
G1 X68.694 Y91.017 E146.39603
G0 F7200 X68.907 Y91.368
G1 F1800 X71.227 Y90.61 E146.65963
G1 X75.357 Y90.602 E147.10567
G1 X77.24 Y91.106 E147.31619
G1 X78.094 Y91.808 E147.43558
G1 X79.493 Y90.448 E147.6463
G1 X81.815 Y89.69 E147.9101
G1 X86.17 Y89.69 E148.38044
G1 X88.205 Y90.382 E148.61258
G1 X90.113 Y92.346 E148.90831
G1 X90.282 Y92.733 E148.95392
G1 X91.687 Y91.368 E149.16548
G1 X94.009 Y90.61 E149.42928
G1 X127.804 Y90.598 E153.07914
G1 X128.442 Y90.293 E153.15551
G1 X130.075 Y89.66 E153.34466
G1 X131.04 Y89.614 E153.449
G1 X131.289 Y89.443 E153.48162
G1 X132.86 Y88.624 E153.67296
G1 X135.134 Y88.597 E153.91857
G1 X137.075 Y87.696 E154.14968
G1 X139.46 Y87.634 E154.40735
G1 X139.986 Y87.613 E154.4642
G1 X142.058 Y87.61 E154.68798
G1 X143.738 Y87.937 E154.87282
G1 X145.16 Y88.61 E155.04273
G1 X148.41 Y88.61 E155.39373
G1 X150.315 Y89.225 E155.60993
G1 X152.148 Y90.916 E155.87926
G1 X152.578 Y91.83 E155.98835
G1 X152.978 Y91.877 E156.03185
G1 X154.545 Y92.475 E156.21299
G1 X156.52 Y94.633 E156.52893
G1 X157.219 Y96.862 E156.78122
G1 X157.185 Y100.209 E157.14271
G1 X157.147 Y100.563 E157.18117
G1 X157.207 Y101.448 E157.27696
G1 X157.215 Y104.019 E157.55463
G1 X156.878 Y105.695 E157.73927
G1 X155.723 Y107.462 E157.96725
G1 X155.145 Y107.961 E158.04972
G1 X155.17 Y115.24 E158.83586
G1 X155.831 Y115.832 E158.93169
G1 X156.841 Y117.655 E159.15677
G1 X157.217 Y118.98 E159.30552
G1 X157.185 Y122.223 E159.65578
G1 X157.148 Y122.556 E159.69197
G1 X157.2 Y123.204 E159.76218
G1 X157.216 Y126.541 E160.12258
G1 X156.555 Y128.562 E160.35223
G1 X154.644 Y130.501 E160.64625
G1 X152.663 Y131.235 E160.87441
G1 X151.81 Y132.685 E161.0561
G1 X149.73 Y134.076 E161.32634
G1 X147.949 Y134.48 E161.52358
G1 X146.531 Y134.51 E161.67675
G1 X144.593 Y135.447 E161.90924
G1 X141.624 Y135.49 E162.22992
G1 X139.514 Y135.49 E162.4578
G1 X137.935 Y135.182 E162.63155
G1 X136.445 Y134.525 E162.80742
